X: 1667
T: Sana Öyle Muhtacım
C: Alâeddin Pakyüz
O: Turkey
F: http://compmusic.upf.edu/node/140
N: acemkurdi--fantezi--sofyan--sana_oyle--alaaddin_pakyuz
N: makam= acemkurdi
N: form= fantezi
N: usul= sofyan = 4/4
M: 4/4
L: 1/16
K: C _B   
Q: 1/4=120
%%MIDI tuningsystem comma53
z4 f2f2 f2e2 f2e2  | e2d2 e2d2 c8  | \
w:   |   | 
z4 e2e2 e2d2 e2d2  | d2c2 d2c2 B8  | 
w:   |   | 
z4 d2d2 f2_e2 d2c2  | B2A2 B2A2 G8  | \
w:   |   | 
z4 A2B2 c2_e2 d2c2  | B2A2 c2B2 A8  | 
w:   |   | 
z4 f2f2 f2e2 f2e2  | e2d2 e2d2 c8  | \
w:   |   | 
z4 e2e2 e2d2 e2d2  | d2c2 d2c2 B8  | 
w:   |   | 
z4 d2d2 f2_e2 d2c2  | B2A2 B2A2 G8  | \
w:   |   | 
z4 A2B2 c2_e2 d2c2  | B2A2 c2B2 A4 f4  | 
w:   |   | 
z4 f2f2 f4 f4  | g4 a4 f8  | z4 f2e2 d4 c4  | \
w:  Sa na  öy le   |  muh ta cım    |  Bi ri cik  sul  | 
B4 c4 A8  | z4 f2f2 f4 f4  | 
w:  ta nım sın    |  Sa na  öy le   | 
g4 a4 f8  | z4 b2a2 g4 f4  | e4 {a}g4 f8  | \
w:  muh ta cım    |  Bi ri cik  sul  |  ta *  nım sın    | 
e4 {a}g4 f8  | a4 a4 a6a2  | a6c'2 b8  | 
w:  SAZ  |  Sen siz  din mi  |  yor  a cım    | 
b4 a4 g4 f4  | c'2b6 a8  | a4 a4 b6g2  | \
w:  Dün ya  şa hit   |  ca nım sın    |  Sen siz  din mi  | 
e6d2 c8  | e4 f4 d4 c4  | a2g6 f8  | 
w:  yor  a cım    |  Dün ya  şa hit   |  ca nım sın    | 
e4 f4 d4 c4  | z2c2 d2e2 f8  | z4 f2f2 f2e2 f4  | \
w:  SAZ  |   |  Gül_ o lur  mu  di  | 
e2d2 e2d2 c8  | z4 e2e2 e2d2 e4  | 
w:  ken *  *  *  siz    |  Ruh_ o lur  *  mu   | 
d2c2 d2c2 B8  | z2d4d2 f2_e2 d2c2  | \
w:  be *  den *  siz    |  Koy ma  bu  gön  | 
B2A2 B2A2 G8  | A4 B4 c4 d4  | 
w:  lü  sen *  *  siz    |  Dün ya  şa hit   | 
B2A2 B2A2 A4 f4  | e4 f4 d4 c4  | z2c2 d2e2 f8  | \
w:  ca nım *  *  sın   SAZ  |  SAZ  |   | 
z4 f2f2 f2e2 f4  | 
w:  Gül_ o lur  mu  di  | 
e2d2 e2d2 c8  | z4 e2e2 e2d2 e4  | d2c2 d2c2 B8  | \
w:  ken *  *  *  siz    |  Ruh_ o lur  *  mu   |  be *  den *  siz    | 
z2d4d2 f2_e2 d2c2  | 
w:  Koy ma  bu  gön  | 
B2A2 B2A2 G8  | A4 B4 c4 d4  | B2A2 B2A2 A8  | \
w:  lü  sen *  *  siz    |  Dün ya  şa hit   |  ca nım *  *  sın    | 
z4 f2f2 f2e2 f2e2  | 
w:   | 
e2d2 e2d2 c8  | z4 e2e2 e2d2 e2d2  | \
w:   |   | 
d2c2 d2c2 B8  | z4 d2d2 f2_e2 d2c2  | 
w:   |   | 
B2A2 B2A2 G8  | z4 A2B2 c2_e2 d2c2  | \
w:   |   | 
B2A2 c2B2 A8  | z4 f2f2 f2e2 f2e2  | 
w:   |   | 
e2d2 e2d2 c8  | z4 e2e2 e2d2 e2d2  | \
w:   |   | 
d2c2 d2c2 B8  | z4 d2d2 f2_e2 d2c2  | 
w:   |   | 
B2A2 B2A2 G8  | z4 A2B2 c2_e2 d2c2  | \
w:   |   | 
B2A2 c2B2 A4 f4  | f2f6 f4 f4  | 
w:   |  Gü zel ler den   | 
g2a6 f8  | f4 e4 d2c6  | B2c6 A8  | f2f6 f4 f4  | \
w:  gü zel sin    |  Rü ya la rı   |  be zer sin    |  Gü zel ler den   | 
g2a6 f8  | b4 a4 g2f6  | 
w:  gü zel sin    |  Rü ya la rı   | 
e2g6 f8  | b4 a4 g2f6  | e4 g4 f8  | z2a4a2 a2a6  | \
w:  be zer sin    |  SAZ  |   |  Ben de  e bed   | 
a2c'6 b8  | b4 a4 g4 f4  | 
w:  e zel sin    |  Dün ya  şa hit   | 
c'2b6 a8  | z2a4a2 a4 g4  | e2d6 c8  | e4 f4 d4 c4  | \
w:  ca nım sın    |  Ben de  e bed   |  e zel sin    |  Dün ya  şa hit   | 
a2g6 f8  | e4 f4 d4 c4  | 
w:  ca nım sın    |  SAZ  | 
z2c2 d2e2 f8  | z4 f2f2 f2e2 f4  | e2d2 e2d2 c8  | \
w:   |  Gül_ o lur  mu  di  |  ken *  *  *  siz    | 
z4 e2e2 e2d2 e4  | 
w:  Ruh_ o lur  *  mu   | 
d2c2 d2c2 B8  | z2d4d2 f2_e2 d2c2  | \
w:  be *  den *  siz    |  Koy ma  bu  gön  | 
B2A2 B2A2 G8  | A4 B4 c4 d4  | 
w:  lü  sen *  *  siz    |  Dün ya  şa hit   | 
B2A2 B2A2 A4 f4  | e4 f4 d4 c4  | z2c2 d2e2 f8  | \
w:  ca nım *  *  sın   SAZ  |  SAZ  |   | 
z4 f2f2 f2e2 f4  | 
w:  Gül_ o lur  mu  di  | 
e2d2 e2d2 c8  | z4 e2e2 e2d2 e4  | d2c2 d2c2 B8  | \
w:  ken *  *  *  siz    |  Ruh_ o lur  *  mu   |  be *  den *  siz    | 
z2d4d2 f2_e2 d2c2  | 
w:  Koy ma  bu  gön  | 
B2A2 B2A2 G8  | A4 B4 c4 d4  | B2A2 B2A2 A8  | |


